;FLAVOR:Marlin
;TIME:710
;Filament used: 0.180931m
;Layer height: 0.16
;MINX:93.805
;MINY:94.76
;MINZ:0.2
;MAXX:126.185
;MAXY:124.223
;MAXZ:19.88
;Generated with Cura_SteamEngine 4.10.0
M140 S60
M105
M190 S60
M104 S200
M105
M109 S200
M82 ;absolute extrusion mode
; Ender 3 Custom Start G-code
G92 E0 ; Reset Extruder
G28 ; Home all axes
G1 Z2.0 F3000 ; Move Z Axis up little to prevent scratching of Heat Bed
G1 X0.1 Y20 Z0.3 F5000.0 ; Move to start position
G1 X0.1 Y200.0 Z0.3 F1500.0 E15 ; Draw the first line
G1 X0.4 Y200.0 Z0.3 F5000.0 ; Move to side a little
G1 X0.4 Y20 Z0.3 F1500.0 E30 ; Draw the second line
G92 E0 ; Reset Extruder
G1 Z2.0 F3000 ; Move Z Axis up little to prevent scratching of Heat Bed
G1 X5 Y20 Z0.3 F5000.0 ; Move over to prevent blob squish
G92 E0
G92 E0
G1 F1500 E-6.5
;LAYER_COUNT:101
;LAYER:0
M107
G0 F6000 X97.342 Y101.979 Z0.2
;TYPE:SKIRT
G1 F1500 E0
G1 F1200 X97.747 Y101.597 E0.01852
G1 X98.294 Y101.132 E0.0424
G1 X98.928 Y100.629 E0.06931
G1 X100.09 Y99.732 E0.11814
G1 X101.967 Y98.198 E0.19876
G1 X102.326 Y97.911 E0.21405
G1 X102.795 Y97.556 E0.23361
G1 X102.932 Y97.458 E0.23922
G1 X103.328 Y97.188 E0.25516
G1 X103.503 Y97.074 E0.2621
G1 X104.209 Y96.651 E0.28948
G1 X104.542 Y96.468 E0.30212
G1 X105.346 Y96.068 E0.33198
G1 X105.489 Y96.004 E0.33719
G1 X105.978 Y95.799 E0.35483
G1 X106.198 Y95.713 E0.36269
G1 X106.769 Y95.508 E0.38286
G1 X106.909 Y95.462 E0.38777
G1 X107.408 Y95.311 E0.40511
G1 X107.65 Y95.244 E0.41346
G1 X108.46 Y95.052 E0.44115
G1 X108.887 Y94.97 E0.45561
G1 X108.948 Y94.959 E0.45767
G1 X110.208 Y94.806 E0.49988
G1 X110.827 Y94.767 E0.52051
G1 X112.097 Y94.76 E0.56275
G1 X112.42 Y94.777 E0.57351
G1 X113.481 Y94.885 E0.60898
G1 X113.793 Y94.932 E0.61948
G1 X114.578 Y95.079 E0.64604
G1 X114.848 Y95.14 E0.65525
G1 X115.414 Y95.284 E0.67467
G1 X115.545 Y95.321 E0.6792
G1 X116.094 Y95.492 E0.69832
G1 X116.3 Y95.562 E0.70556
G1 X117.124 Y95.879 E0.73493
G1 X117.455 Y96.022 E0.74692
G1 X118.134 Y96.344 E0.77191
G1 X118.324 Y96.442 E0.77902
G1 X119.033 Y96.841 E0.80608
G1 X119.302 Y97.006 E0.81658
G1 X119.889 Y97.392 E0.83994
G1 X120.615 Y97.947 E0.87034
G1 X121.12 Y98.367 E0.89219
G1 X121.8 Y98.982 E0.92268
G1 X121.861 Y99.042 E0.92553
G1 X122.339 Y99.543 E0.94856
G1 X122.503 Y99.726 E0.95673
G1 X122.989 Y100.307 E0.98192
G1 X123.137 Y100.497 E0.98993
G1 X123.465 Y100.941 E1.00829
G1 X123.62 Y101.162 E1.01727
G1 X124.192 Y102.069 E1.05294
G1 X124.384 Y102.409 E1.06592
G1 X124.889 Y103.42 E1.10351
G1 X125.036 Y103.757 E1.11574
G1 X125.32 Y104.478 E1.14151
G1 X125.381 Y104.65 E1.14758
G1 X125.567 Y105.223 E1.16762
G1 X125.627 Y105.427 E1.17469
G1 X125.783 Y106.018 E1.19502
G1 X125.829 Y106.214 E1.20172
G1 X125.941 Y106.753 E1.22003
G1 X125.97 Y106.912 E1.2254
G1 X126.118 Y108.064 E1.26404
G1 X126.165 Y108.691 E1.28495
G1 X126.185 Y110.016 E1.32902
G1 X126.171 Y110.322 E1.33921
G1 X126.082 Y111.295 E1.37171
G1 X126.035 Y111.642 E1.38335
G1 X125.892 Y112.467 E1.4112
G1 X125.846 Y112.682 E1.41852
G1 X125.637 Y113.501 E1.44663
G1 X125.545 Y113.812 E1.45742
G1 X125.264 Y114.641 E1.48653
G1 X125.174 Y114.875 E1.49487
G1 X124.954 Y115.405 E1.51396
G1 X124.884 Y115.562 E1.51967
G1 X124.687 Y115.981 E1.53507
G1 X124.597 Y116.162 E1.5418
G1 X124.182 Y116.918 E1.57048
G1 X124.019 Y117.19 E1.58103
G1 X123.544 Y117.917 E1.60991
G1 X123.398 Y118.122 E1.61828
G1 X122.907 Y118.761 E1.64508
G1 X122.689 Y119.024 E1.65645
G1 X122.128 Y119.65 E1.6844
G1 X121.982 Y119.801 E1.69139
G1 X121.357 Y120.399 E1.72016
G1 X121.074 Y120.649 E1.73272
G1 X120.452 Y121.159 E1.75947
G1 X120.314 Y121.264 E1.76524
G1 X119.85 Y121.599 E1.78427
G1 X119.674 Y121.719 E1.79136
G1 X118.99 Y122.149 E1.81823
G1 X118.674 Y122.332 E1.83038
G1 X117.931 Y122.725 E1.85833
G1 X117.744 Y122.815 E1.86523
G1 X116.615 Y123.283 E1.90588
G1 X116.059 Y123.478 E1.92548
G1 X114.829 Y123.83 E1.96803
G1 X114.602 Y123.881 E1.97577
G1 X113.671 Y124.049 E2.00724
G1 X113.185 Y124.115 E2.02355
G1 X112.241 Y124.202 E2.05508
G1 X112.077 Y124.21 E2.06054
G1 X111.541 Y124.223 E2.07837
G1 X111.334 Y124.223 E2.08526
G1 X110.736 Y124.207 E2.10516
G1 X110.589 Y124.199 E2.11005
G1 X110.046 Y124.156 E2.12817
G1 X109.835 Y124.134 E2.13522
G1 X109.283 Y124.062 E2.15374
G1 X109.084 Y124.031 E2.16044
G1 X108.58 Y123.94 E2.17747
G1 X108.423 Y123.908 E2.1828
G1 X107.839 Y123.773 E2.20274
G1 X107.64 Y123.721 E2.20958
G1 X106.854 Y123.484 E2.23688
G1 X105.509 Y123.023 E2.28417
G1 X104.931 Y122.815 E2.3046
G1 X103.146 Y122.221 E2.36718
G1 X102.086 Y121.88 E2.40421
G1 X101.206 Y121.555 E2.43541
G1 X100.187 Y121.065 E2.47302
G1 X100 Y120.963 E2.4801
G1 X99.196 Y120.479 E2.51132
G1 X98.81 Y120.211 E2.52695
G1 X98.639 Y120.087 E2.53397
G1 X97.903 Y119.505 E2.56518
G1 X97.221 Y118.862 E2.59635
G1 X96.677 Y118.261 E2.62332
G1 X95.921 Y117.258 E2.66509
G1 X95.779 Y117.045 E2.67361
G1 X95.528 Y116.651 E2.68914
G1 X95.068 Y115.834 E2.72033
G1 X94.679 Y114.981 E2.75151
G1 X94.364 Y114.098 E2.78269
G1 X94.059 Y112.865 E2.82494
G1 X93.99 Y112.495 E2.83746
G1 X93.858 Y111.566 E2.86866
G1 X93.805 Y110.63 E2.89985
G1 X93.832 Y109.692 E2.93106
G1 X93.924 Y108.859 E2.95893
G1 X93.949 Y108.691 E2.96458
G1 X94.149 Y107.675 E2.99902
G1 X94.206 Y107.444 E3.00693
G1 X94.47 Y106.544 E3.03813
G1 X94.809 Y105.669 E3.06934
G1 X95.221 Y104.827 E3.10052
G1 X95.595 Y104.19 E3.12509
G1 X95.64 Y104.119 E3.12788
G1 X95.974 Y103.622 E3.1478
G1 X96.128 Y103.406 E3.15662
G1 X96.705 Y102.666 E3.18783
G1 X97.342 Y101.979 E3.21899
G0 F6000 X97.962 Y101.942
G1 F1200 X98.016 Y101.893 E3.22142
G1 X98.543 Y101.445 E3.24442
G1 X99.173 Y100.946 E3.27115
G1 X100.325 Y100.057 E3.31955
G1 X102.217 Y98.511 E3.40082
G1 X102.576 Y98.224 E3.4161
G1 X103.028 Y97.882 E3.43496
G1 X103.165 Y97.784 E3.44056
G1 X103.546 Y97.523 E3.45592
G1 X103.721 Y97.409 E3.46287
G1 X104.402 Y97.001 E3.48927
G1 X104.735 Y96.818 E3.50191
G1 X105.51 Y96.433 E3.53069
G1 X105.653 Y96.369 E3.5359
G1 X106.124 Y96.172 E3.55288
G1 X106.344 Y96.086 E3.56074
G1 X106.894 Y95.888 E3.58018
G1 X107.034 Y95.842 E3.58508
G1 X107.515 Y95.696 E3.6018
G1 X107.757 Y95.629 E3.61015
G1 X108.538 Y95.445 E3.63684
G1 X109.019 Y95.352 E3.65313
G1 X110.233 Y95.205 E3.69381
G1 X110.852 Y95.166 E3.71444
G1 X112.076 Y95.16 E3.75515
G1 X112.399 Y95.177 E3.7659
G1 X113.421 Y95.28 E3.80007
G1 X113.733 Y95.327 E3.81056
G1 X114.49 Y95.47 E3.83619
G1 X114.76 Y95.531 E3.84539
G1 X115.305 Y95.669 E3.86409
G1 X115.436 Y95.706 E3.86862
G1 X115.965 Y95.871 E3.88705
G1 X116.171 Y95.941 E3.89429
G1 X116.965 Y96.246 E3.92258
G1 X117.296 Y96.389 E3.93457
G1 X117.951 Y96.699 E3.95867
G1 X118.141 Y96.797 E3.96578
G1 X118.824 Y97.182 E3.99186
G1 X119.093 Y97.347 E4.00235
G1 X119.66 Y97.72 E4.02493
G1 X120.359 Y98.254 E4.05418
G1 X120.864 Y98.674 E4.07603
G1 X121.519 Y99.267 E4.10542
G1 X121.58 Y99.327 E4.10826
G1 X122.041 Y99.81 E4.13047
G1 X122.205 Y99.993 E4.13864
G1 X122.673 Y100.553 E4.16292
G1 X122.821 Y100.743 E4.17093
G1 X123.137 Y101.17 E4.1886
G1 X123.292 Y101.391 E4.19757
G1 X123.844 Y102.266 E4.23198
G1 X124.036 Y102.606 E4.24497
G1 X124.522 Y103.58 E4.28117
G1 X124.669 Y103.917 E4.2934
G1 X124.943 Y104.612 E4.31825
G1 X125.004 Y104.784 E4.32432
G1 X125.183 Y105.336 E4.34362
G1 X125.243 Y105.54 E4.35069
G1 X125.394 Y106.109 E4.37027
G1 X125.44 Y106.305 E4.37697
G1 X125.548 Y106.825 E4.39463
G1 X125.577 Y106.984 E4.40001
G1 X125.719 Y108.094 E4.43723
G1 X125.766 Y108.721 E4.45814
G1 X125.785 Y109.997 E4.50059
G1 X125.771 Y110.303 E4.51078
G1 X125.686 Y111.242 E4.54213
G1 X125.639 Y111.589 E4.55378
G1 X125.5 Y112.384 E4.58062
G1 X125.454 Y112.599 E4.58794
G1 X125.254 Y113.388 E4.61501
G1 X125.162 Y113.699 E4.6258
G1 X124.89 Y114.497 E4.65384
G1 X124.8 Y114.731 E4.66218
G1 X124.588 Y115.243 E4.68061
G1 X124.518 Y115.4 E4.68632
G1 X124.328 Y115.802 E4.70111
G1 X124.238 Y115.983 E4.70784
G1 X123.839 Y116.713 E4.73551
G1 X123.676 Y116.985 E4.74605
G1 X123.218 Y117.685 E4.77388
G1 X123.072 Y117.89 E4.78225
G1 X122.599 Y118.506 E4.80808
G1 X122.381 Y118.769 E4.81944
G1 X121.84 Y119.372 E4.84638
G1 X121.694 Y119.523 E4.85337
G1 X121.092 Y120.099 E4.88108
G1 X120.809 Y120.349 E4.89364
G1 X120.21 Y120.841 E4.91942
G1 X120.072 Y120.946 E4.92519
G1 X119.624 Y121.268 E4.94354
G1 X119.448 Y121.388 E4.95063
G1 X118.789 Y121.803 E4.97653
G1 X118.473 Y121.986 E4.98867
G1 X117.758 Y122.364 E5.01557
G1 X117.571 Y122.454 E5.02248
G1 X116.482 Y122.906 E5.06169
G1 X115.926 Y123.101 E5.08129
G1 X114.742 Y123.44 E5.12225
G1 X114.515 Y123.491 E5.12999
G1 X113.617 Y123.653 E5.16034
G1 X113.131 Y123.719 E5.17665
G1 X112.221 Y123.802 E5.20704
G1 X112.057 Y123.81 E5.21251
G1 X111.541 Y123.823 E5.22967
G1 X111.334 Y123.823 E5.23656
G1 X110.758 Y123.807 E5.25572
G1 X110.611 Y123.799 E5.26062
G1 X110.088 Y123.758 E5.27807
G1 X109.877 Y123.736 E5.28512
G1 X109.344 Y123.667 E5.303
G1 X109.145 Y123.636 E5.3097
G1 X108.66 Y123.548 E5.32609
G1 X108.503 Y123.516 E5.33142
G1 X107.94 Y123.386 E5.35064
G1 X107.741 Y123.334 E5.35748
G1 X106.984 Y123.105 E5.38379
G1 X105.471 Y122.585 E5.437
G1 X105.072 Y122.441 E5.45111
G1 X103.238 Y121.83 E5.5154
G1 X102.208 Y121.499 E5.55138
G1 X101.345 Y121.179 E5.582
G1 X100.378 Y120.714 E5.61769
G1 X100.191 Y120.612 E5.62477
G1 X99.044 Y119.887 E5.6699
G1 X98.873 Y119.763 E5.67693
G1 X98.152 Y119.191 E5.70754
G1 X97.483 Y118.558 E5.73817
G1 X96.982 Y118.003 E5.76304
G1 X96.254 Y117.036 E5.8033
G1 X96.112 Y116.823 E5.81181
G1 X95.868 Y116.44 E5.82692
G1 X95.417 Y115.638 E5.85752
G1 X95.037 Y114.799 E5.88815
G1 X94.731 Y113.931 E5.91876
G1 X94.453 Y112.791 E5.95779
G1 X94.384 Y112.421 E5.97031
G1 X94.254 Y111.51 E6.00092
G1 X94.205 Y110.59 E6.03156
G1 X94.235 Y109.67 E6.06218
G1 X94.319 Y108.918 E6.08734
G1 X94.344 Y108.75 E6.09299
G1 X94.538 Y107.771 E6.12619
G1 X94.595 Y107.54 E6.1341
G1 X94.854 Y106.656 E6.16474
G1 X95.189 Y105.799 E6.19534
G1 X95.597 Y104.973 E6.22598
G1 X95.933 Y104.404 E6.24796
G1 X95.978 Y104.333 E6.25076
G1 X96.3 Y103.854 E6.26995
G1 X96.454 Y103.638 E6.27878
G1 X97.021 Y102.913 E6.30939
G1 X97.962 Y101.942 E6.35436
G0 F6000 X98.231 Y102.238
G1 F1200 X98.285 Y102.189 E6.35679
G1 X98.792 Y101.758 E6.37892
G1 X99.417 Y101.263 E6.40544
G1 X100.573 Y100.371 E6.454
G1 X102.467 Y98.823 E6.53536
G1 X102.826 Y98.536 E6.55065
G1 X103.261 Y98.207 E6.56879
G1 X103.398 Y98.109 E6.57439
G1 X103.765 Y97.858 E6.58918
G1 X103.94 Y97.744 E6.59613
G1 X104.595 Y97.352 E6.62151
G1 X104.928 Y97.169 E6.63415
G1 X105.673 Y96.798 E6.66183
G1 X105.816 Y96.734 E6.66704
G1 X106.269 Y96.544 E6.68338
G1 X106.489 Y96.458 E6.69124
G1 X107.019 Y96.268 E6.70997
G1 X107.159 Y96.222 E6.71487
G1 X107.621 Y96.082 E6.73092
G1 X107.863 Y96.015 E6.73927
G1 X108.615 Y95.837 E6.76498
G1 X109.029 Y95.757 E6.779
G1 X109.09 Y95.746 E6.78106
G1 X110.259 Y95.604 E6.82023
G1 X110.878 Y95.565 E6.84086
G1 X112.055 Y95.559 E6.88001
G1 X112.378 Y95.576 E6.89076
G1 X113.361 Y95.676 E6.92363
G1 X113.673 Y95.723 E6.93412
G1 X114.402 Y95.86 E6.95879
G1 X114.672 Y95.921 E6.968
G1 X115.196 Y96.054 E6.98598
G1 X115.327 Y96.091 E6.99051
G1 X115.837 Y96.249 E7.00827
G1 X116.043 Y96.319 E7.0155
G1 X116.806 Y96.613 E7.0427
G1 X117.137 Y96.756 E7.05469
G1 X117.768 Y97.055 E7.07792
G1 X117.958 Y97.153 E7.08503
G1 X118.615 Y97.523 E7.11011
G1 X118.884 Y97.688 E7.1206
G1 X119.43 Y98.048 E7.14235
G1 X120.103 Y98.562 E7.17052
G1 X120.608 Y98.982 E7.19237
G1 X121.239 Y99.552 E7.22065
G1 X121.3 Y99.612 E7.22349
G1 X121.743 Y100.077 E7.24485
G1 X121.907 Y100.26 E7.25303
G1 X122.358 Y100.799 E7.2764
G1 X122.506 Y100.989 E7.28441
G1 X122.81 Y101.4 E7.30142
G1 X122.965 Y101.621 E7.31039
G1 X123.496 Y102.462 E7.34347
G1 X123.688 Y102.802 E7.35646
G1 X124.155 Y103.74 E7.39131
G1 X124.302 Y104.077 E7.40354
G1 X124.566 Y104.746 E7.42746
G1 X124.627 Y104.918 E7.43353
G1 X124.8 Y105.449 E7.45211
G1 X124.86 Y105.653 E7.45918
G1 X125.004 Y106.2 E7.47799
G1 X125.05 Y106.396 E7.48469
G1 X125.154 Y106.897 E7.50171
G1 X125.183 Y107.056 E7.50708
G1 X125.32 Y108.124 E7.5429
G1 X125.367 Y108.751 E7.56381
G1 X125.385 Y109.979 E7.60466
G1 X125.371 Y110.285 E7.61484
G1 X125.29 Y111.188 E7.645
G1 X125.243 Y111.535 E7.65665
G1 X125.109 Y112.3 E7.68248
G1 X125.063 Y112.515 E7.68979
G1 X124.87 Y113.274 E7.71584
G1 X124.778 Y113.585 E7.72662
G1 X124.517 Y114.354 E7.75363
G1 X124.427 Y114.588 E7.76197
G1 X124.223 Y115.08 E7.77969
G1 X124.153 Y115.237 E7.78541
G1 X123.97 Y115.624 E7.79964
G1 X123.88 Y115.805 E7.80637
G1 X123.496 Y116.507 E7.83298
G1 X123.333 Y116.779 E7.84353
G1 X122.892 Y117.453 E7.87032
G1 X122.746 Y117.658 E7.87869
G1 X122.291 Y118.25 E7.90352
G1 X122.073 Y118.513 E7.91488
G1 X121.553 Y119.094 E7.94082
G1 X121.407 Y119.245 E7.9478
G1 X120.827 Y119.799 E7.97448
G1 X120.544 Y120.049 E7.98704
G1 X119.967 Y120.522 E8.01185
G1 X119.829 Y120.627 E8.01762
G1 X119.399 Y120.938 E8.03527
G1 X119.223 Y121.058 E8.04236
G1 X118.589 Y121.457 E8.06727
G1 X118.273 Y121.64 E8.07942
G1 X117.584 Y122.004 E8.10534
G1 X117.397 Y122.094 E8.11224
G1 X116.35 Y122.528 E8.14993
G1 X115.794 Y122.723 E8.16953
G1 X114.654 Y123.05 E8.20898
G1 X114.427 Y123.101 E8.21672
G1 X113.564 Y123.256 E8.24588
G1 X113.078 Y123.322 E8.26219
G1 X112.202 Y123.403 E8.29145
G1 X112.038 Y123.411 E8.29691
G1 X111.541 Y123.423 E8.31345
G1 X111.334 Y123.423 E8.32033
G1 X110.78 Y123.408 E8.33876
G1 X110.633 Y123.4 E8.34366
G1 X110.129 Y123.36 E8.36048
G1 X109.918 Y123.338 E8.36753
G1 X109.406 Y123.271 E8.38471
G1 X109.207 Y123.24 E8.39141
G1 X108.74 Y123.157 E8.40718
G1 X108.583 Y123.125 E8.41251
G1 X108.041 Y122.999 E8.43102
G1 X107.842 Y122.947 E8.43786
G1 X107.114 Y122.727 E8.46315
G1 X105.607 Y122.209 E8.51616
G1 X105.185 Y122.056 E8.53109
G1 X103.361 Y121.449 E8.59502
G1 X102.331 Y121.118 E8.63101
G1 X101.484 Y120.804 E8.66105
G1 X100.57 Y120.363 E8.69481
G1 X100.383 Y120.261 E8.70189
G1 X99.279 Y119.563 E8.74533
G1 X99.108 Y119.439 E8.75236
G1 X98.401 Y118.877 E8.7824
G1 X97.747 Y118.255 E8.81242
G1 X97.287 Y117.745 E8.83526
G1 X96.587 Y116.814 E8.874
G1 X96.445 Y116.601 E8.88252
G1 X96.208 Y116.229 E8.89719
G1 X95.766 Y115.442 E8.92721
G1 X95.395 Y114.618 E8.95726
G1 X95.099 Y113.765 E8.98729
G1 X94.846 Y112.718 E9.02312
G1 X94.777 Y112.348 E9.03564
G1 X94.651 Y111.454 E9.06567
G1 X94.604 Y110.552 E9.09571
G1 X94.638 Y109.649 E9.12576
G1 X94.715 Y108.977 E9.14826
G1 X94.74 Y108.809 E9.15391
G1 X94.926 Y107.866 E9.18588
G1 X94.983 Y107.635 E9.19379
G1 X95.238 Y106.769 E9.22382
G1 X95.569 Y105.929 E9.25385
G1 X95.972 Y105.121 E9.28388
G1 X96.271 Y104.619 E9.30331
G1 X96.316 Y104.548 E9.30611
G1 X96.626 Y104.087 E9.32458
G1 X96.78 Y103.871 E9.33341
G1 X97.336 Y103.159 E9.36345
G1 X98.231 Y102.238 E9.40617
G0 F6000 X105.524 Y110.194
G1 F1200 X105.628 Y110.125 E9.41032
G1 X105.859 Y110.084 E9.41812
G1 X106.346 Y110.084 E9.43432
G1 X106.377 Y110.319 E9.4422
G1 X106.448 Y110.672 E9.45418
G1 X106.072 Y110.81 E9.4675
G1 X105.836 Y110.813 E9.47535
G1 X105.637 Y110.841 E9.48204
G1 X105.519 Y110.76 E9.4868
G1 X105.426 Y110.615 E9.49253
G1 X105.402 Y110.474 E9.49728
G1 X105.436 Y110.323 E9.50243
G1 X105.524 Y110.194 E9.50762
G0 F6000 X105.259 Y109.89
G1 F1200 X105.475 Y109.746 E9.51626
G1 X105.821 Y109.684 E9.52795
G1 X106.711 Y109.684 E9.55755
G1 X106.717 Y109.775 E9.56058
G1 X106.759 Y110.192 E9.57452
G1 X106.856 Y110.668 E9.59068
G1 X106.933 Y110.919 E9.59941
G1 X106.107 Y111.223 E9.62869
G1 X105.937 Y111.2 E9.63439
G1 X105.686 Y111.266 E9.64303
G1 X105.451 Y111.199 E9.65115
G1 X105.231 Y111.046 E9.66007
G1 X105.215 Y111.029 E9.66084
G1 X105.046 Y110.766 E9.67124
G1 X104.994 Y110.462 E9.6815
G1 X105.061 Y110.162 E9.69172
